icons/vmod.svg

<svg width="16" height="16" viewBox="0 0 16 16" fill="none" xmlns="http://www.w3.org/2000/svg">
<path fill-rule="evenodd" clip-rule="evenodd" d="M2 8C2 12.8392 3.16084 14 8 14C12.8392 14 14 12.8392 14 8C14 3.16084 12.8392 2 8 2C3.16084 2 2 3.16084 2 8ZM5.76589 5.22315L4.0843 5.00961C3.86027 4.98116 3.68631 5.20111 3.76561 5.41256L6.04124 11.4809C6.15833 11.7931 6.45683 12 6.7903 12H8.58709L8.59791 11.9997L8.62215 12H9.45068C9.53246 12 9.606 11.9502 9.63638 11.8743L12.2161 5.42507C12.3014 5.21162 12.1249 4.9854 11.8971 5.01639L10.3915 5.22123C10.1109 5.2594 9.87144 5.44306 9.76179 5.70414L8.0276 9.83317L6.40948 5.72368C6.30244 5.45183 6.05572 5.25995 5.76589 5.22315Z" fill="#4494FF"/>
</svg>

<svg xmlns="http://www.w3.org/2000/svg" width="16" height="16" fill="none"><path fill="#4494FF" fill-rule="evenodd" d="M2 8c0 4.84 1.16 6 6 6s6-1.16 6-6-1.16-6-6-6-6 1.16-6 6Zm3.766-2.777L4.084 5.01a.3.3 0 0 0-.318.403L6.04 11.48a.8.8 0 0 0 .75.519h2.66a.2.2 0 0 0 .185-.126l2.58-6.449a.3.3 0 0 0-.319-.409l-1.505.205a.8.8 0 0 0-.63.483l-1.734 4.13-1.619-4.11a.8.8 0 0 0-.643-.5Z" clip-rule="evenodd"/></svg>
